!!! OTL: Berkowitz498
!!! Chapter: 1
!!! Section: IV
!!! Page: 124
!!! Mode: 
!!! Encoder: DJB
**kern
*staff1
*I"Piano
=1-
*clefC3
*k[b-e-a-]
*E-:
*M3/4
8.B-/L
16B-/Jk
4e-\
4g\
=2
8.an\L
16cc\Jk
4.b-\
8g\
=3
8.a-\L
16en\Jk
8f\L
8g\J
8a-\L
8f\J
=4
8.e-\L
16f\Jk
4g\
8r
[8B-/
=5
8.B-/L]
16B-/Jk
4d\
4f\
=6
8.a-\L
16cc\Jk
4b-\
[4ee-\
=7
8ee-\L]
8en\J
8.f\L
16g\Jk
8a-\L
8d\J
=8
4f\
4e-\
4r
=9
!!linebreak:original
8.B-/L
16B-/Jk
4e-\
4g\
=10
8.an\L
16cc\Jk
4.b-\
8g\
=11
8.a-\L
16en\Jk
8f\L
8g\J
8a-\L
8f\J
=12
8.e-\L
16f\Jk
4g\
8r
[8B-/
=13
8.B-/L]
16B-/Jk
4d\
4f\
=14
8.a-\L
16cc\Jk
4b-\
[4ee-\
=15
8ee-\L]
8en\J
8.f\L
16g\Jk
8a-\L
8d\J
=16
4f\
4e-\
4r
=17
!!linebreak:original
8.g\L
16g\Jk
4g\
4cc\
=18
8.bn\L
16cc\Jk
4dd\
[4f\
=19
8f\L]
8a-\J
8g\L
8f\J
8e-\L
8d\J
=20
8.c\L
16d\Jk
2e-\
=21
8.f#\L
16a-\Jk
4g\
4c\
=22
8.f#\L
16a-\Jk
4g\
[4cc\
=23
8cc\L]
8a-\J
8f\L
8d\J
8.g\L
16g\Jk
=24
2c\
4c-\
=25
8.B-/L
16B-/Jk
4e-\
4g\
=26
!!linebreak:original
8.a-\L
16cc\Jk
4.b-\
8g\
=27
8.a-\L
16e-\Jk
8f\L
8g\J
8a-\L
8f\J
=28
8.e-\L
16f\Jk
4g\
8r
[8B-/
=29
8.B-/L]
16B-/Jk
4d\
4f\
=30
8.a-\L
16cc\Jk
4b-\
[4ee-\
=31
8ee-\L]
8en\J
8f\L
8g\J
8a-\L
8d\J
=32
4f\
4e-\
8r
8B-/
=33
8.f\L
16g\Jk
4f\
4e-\
=34
!!linebreak:original
8.f\L
16g\Jk
2e-\
=35
8.g\L
16g\Jk
4g\
4cc\
=36
8.bn\L
16cc\Jk
4dd\
[4f\
=37
8f\L]
8a-\J
8g\L
8f\J
8e-\L
8d\J
=38
8.c\L
16d\Jk
2e-\
=39
8.f#\L
16a-\Jk
4g\
4c\
=40
8.f#\L
16a-\Jk
4g\
[4cc\
=41
8cc\L]
8a-\J
8f\L
8d\J
8.g\L
16g\Jk
=42
2c\
4c-\
=43
!!linebreak:original
8.B-/L
16B-/Jk
4e-\
4g\
=44
8.a-\L
16cc\Jk
4.b-\
8g\
=45
8.a-\L
16e-\Jk
8f\L
8g\J
8a-\L
8f\J
=46
8.e-\L
16f\Jk
4g\
8r
[8B-/
=47
8.B-/L]
16B-/Jk
4d\
4f\
=48
8.a-\L
16cc\Jk
4b-\
[4ee-\
=49
8ee-\L]
8en\J
8f\L
8g\J
8a-\L
8d\J
=50
4f\
4e-\
8r
8B-/
=51
!!linebreak:original
8.f\L
16g\Jk
4f\
4e-\
=52
8.f\L
16g\Jk
2e-\
==
*-
